X:337
T:Lo Martin
R:Branle b\'earnais
C:trad
N:original url: www.wolfram.claranet.de
M:2/4
L:1/8
K:G
|:BB/A/GG| ABBA| BB/A/GG| ABBA:|
|:DDGG| AAB2| B/B/B/B/AG| A/A/A/B/ AG| DDGG| ADB2| B/B/B/B/AG| AAG2:|
